X:1
T:Title
%%score [ ( 1 2 ) ( 3 4 ) ] { ( 5 6 ) | 7 }
L:1/8
Q:1/4=120
M:4/4
K:D
V:1 treble nm="Midi_74"
V:2 treble 
V:3 bass nm="Midi_74"
V:4 bass 
V:5 treble nm="Org."
V:6 treble 
V:7 bass 
V:1
 A8 | f4 e4 | (d6 c2) || B8 | e4 f4 | g4 e4 |{d} c8 || A8 | d4 c4 | B8 || A8 | %11
"^John Camidge\n(1790-1859)" d4 G4 | F4 E4 | D8 |] %14
V:2
 F8 | F4 G4 | A8 || (G6 A2) | G4 A4 | B4 G4 | E8 || (F6 G2) | A4 G4 | F8 || E8 | D4 E4 | D4 C4 | %13
 D8 |] %14
V:3
 A,8 | A,4 C4 | D8 || (D6 ^D2) | E4 B,4 | B,4 B,4 | A,8 || A,8 | A,4 C4 | D8 || A,8 | B,4 B,4 | %12
 A,4 G,4 | F,8 |] %14
V:4
 D,8 | D,4 E,4 | F,8 || (G,6 F,2) | E,4 ^D,4 | E,4 G,4 | A,8 || (D,6 E,2) | F,4 E,4 | D,8 || C,8 | %11
 B,,4 G,,4 | A,,4 A,,4 | D,8 |] %14
V:5
 [DA]8 | [FAdf]4 [GAce]4 | d6 c2 || B8 | e4 [ABf]4 | [GBg]4 [GBe]4 |{[FAd]} [EAc]6 [GB]2 || A8 | %8
 d4 c4 | B8 || [EA]8 | [Dd]4 G4 | F4 E4 | D8 |] %14
V:6
 F8 | x8 | A8 || [DG]6 [^DA]2 | [EGB]4 x4 | x8 | x8 || F6 G2 | A4 G4 | F8 || x4 x4 | x4 [B,E]4 | %12
 [A,D]4 [G,A,C]4 | D8 |] %14
V:7
 [D,,D,]8 | [D,,D,]4 [E,,E,]4 | [F,,F,]8 || [G,,G,]6 [F,,F,]2 | [E,,E,]4 [^D,,^D,]4 | %5
 [E,,E,]4 [G,,G,]4 | [A,,A,]8 || [D,D]6 [E,E]2 | [F,F]4 [E,E]4 | [D,D]8 || [C,C]8 | %11
 [B,,B,]4 [G,,G,]4 | A,,4"^8" A,,4 | [D,,D,F,A,]8 |] %14

